X: 242
T: 243. Jesu, du mein liebstes Leben
N: Derived from chor243.krn
C: Johann Sebastian Bach
%%abc-version 2.0
%%abcx-abcm2ps-target-version 5.9.1 (29 Sep 2008)
%%abc-creator hum2abc beta
%%abcx-conversion-date 2019/03/11 17:28:19
%%abc-edited-by Craig Stuart Sapp
%%humdrum-veritas 1456382246
%%humdrum-veritas-data 845867737
%%
%%barnumbers 0
L: 1/4
M: 3/4
%%staves [1 2 3 4]
V: 1 clef=treble
V: 2 clef=treble
V: 3 clef=treble-8
V: 4 clef=bass
K: Bb
[V:1] G2A | 
[V:2] D2A- | 
[V:3] B2d | 
[V:4] G,,G,^F, | 
[V:1] Bcd | 
[V:2] A/G/ =F/E/D | 
[V:3] dcB- | 
[V:4] G,A,B, | 
[V:1] c2B | 
[V:2] GA-A/G/ | 
[V:3] BAB/d/ | 
[V:4] =E,^F,G, | 
[V:1] A2!fermata!G | 
[V:2] G^F!fermata!D | 
[V:3] _e/A/ d/c/!fermata!B | 
[V:4] C,D,!fermata!G,, | 
[V:1] def | 
[V:2] BA/G/=F | 
[V:3] =fed- | 
[V:4] B,,C,D, | 
[V:1] Bcd | 
[V:2] GF/E/D | 
[V:3] dcB- | 
[V:4] G,,A,,B,, | 
[V:1] c2c | 
[V:2] GE/G/ F/E/ | 
[V:3] BA/G/A | 
[V:4] E,C,F, | 
[V:1] !fermata!B3 :|]  
[V:2] !fermata!D3 :|]  
[V:3] !fermata!B3 :|]  
[V:4] !fermata!B,,3 :|]  
[V:1] A2G | 
[V:2] F2G- | 
[V:3] c2c | 
[V:4] F,,F,=E, | 
[V:1] ABc | 
[V:2] G/F/ =E/D/C | 
[V:3] cBA- | 
[V:4] F,G,A, | 
[V:1] B2A | 
[V:2] FG-G/F/- | 
[V:3] AGA/c/ | 
[V:4] D,=E,F, | 
[V:1] G2!fermata!F | 
[V:2] F=E!fermata!C | 
[V:3] d/G/ c/B/!fermata!A | 
[V:4] B,,C,!fermata!F,, | 
[V:1] B2A | 
[V:2] FGD- | 
[V:3] dc-c | 
[V:4] D,=E,^F, | 
[V:1] Bcd | 
[V:2] D/G/ F/E/D | 
[V:3] B/e/ d/c/B- | 
[V:4] G,A,B, | 
[V:1] d2c | 
[V:2] G/^F/ G/B/ A/G/ | 
[V:3] B/A/Be | 
[V:4] E,3 | 
[V:1] !fermata!d3 | 
[V:2] !fermata!^F3 | 
[V:3] !fermata!A3 | 
[V:4] !fermata!D,3 | 
[V:1] A2d | 
[V:2] ^F2F | 
[V:3] d2d | 
[V:4] D,/D,,/D,/C,/B,,/A,,/ | 
[V:1] GAB | 
[V:2] GDD | 
[V:3] dAG | 
[V:4] B,,/A,,/G,,/^F,,/G,, | 
[V:1] A2A | 
[V:2] ECD/C/ | 
[V:3] G2^F | 
[V:4] C,A,,D, | 
[V:1] !fermata!G3 |]  
[V:2] !fermata!=B,3 |]  
[V:3] !fermata!D3 |]  
[V:4] !fermata!G,,3 |]  



